X:1
T:FAIR JANET
M:3/4
L:1/8
K:C
G/2-G/2| c2 c2 cd| e2 dc AG/2-A/2| c2 c2 de| e4 z C| C2E-E GA| _B2 AG A=B|\
 c3/2- A/2 GE D3/2 C/2| C4 z||
